svgs/google_duo.svg

<svg width="192" height="192" viewBox="0 0 192 192" fill="none" xmlns="http://www.w3.org/2000/svg"><path d="M22 64c0-7.732 6.268-14 14-14h82c7.732 0 14 6.268 14 14v64c0 7.732-6.268 14-14 14H36c-7.732 0-14-6.268-14-14V64Z" stroke="#000" stroke-width="12"/><path d="m170 59-38 37 38 37V59Z" stroke="#000" stroke-width="12" stroke-linejoin="round"/></svg>

<svg id="vector" xmlns="http://www.w3.org/2000/svg" width="192" height="192" viewBox="0 0 192 192"><path fill="#00000000" d="M22,64C22,56.268 28.268,50 36,50H118C125.732,50 132,56.268 132,64V128C132,135.732 125.732,142 118,142H36C28.268,142 22,135.732 22,128V64Z" stroke-width="12" stroke="#000000" id="path_0"/><path fill="#00000000" d="M170,59L132,96L170,133V59Z" stroke-linejoin="round" stroke-width="12" stroke="#000000" id="path_1"/></svg>
